svgs/school_planner.svg

<svg xmlns="http://www.w3.org/2000/svg" viewBox="0 0 192 192"><path d="m32.458 130.623.404-71.51h-8.073v90.99c11.094-2.865 22.227-4.688 33.438-4.766 10.351-.065 20.703 1.38 31.08 4.896-6.445-5.222-13.633-9.063-21.302-11.563-9.661-3.151-20.104-4.192-30.807-3.281a4.401 4.401 0 0 1-4.74-4.01 3.673 3.673 0 0 1 0-.756Zm118.464-75.247a5.292 5.292 0 0 1-.052-.664c0-.221.013-.443.052-.664V39.569c-10.156-.964-20.625.156-29.766 3.62-8.541 3.242-15.911 8.567-20.703 16.197v82.474c7.448-4.974 15.065-9.062 22.891-11.849 8.919-3.177 18.086-4.687 27.578-3.932Zm8.789-5.052h11.901A4.39 4.39 0 0 1 176 54.712v101.12a4.39 4.39 0 0 1-5.807 4.153c-12.24-3.502-24.401-5.833-36.446-5.911-11.744-.078-23.476 1.992-35.26 7.187a4.425 4.425 0 0 1-2.5.73 4.485 4.485 0 0 1-2.5-.73c-11.771-5.208-23.516-7.265-35.26-7.187-12.045.078-24.193 2.409-36.446 5.911a4.246 4.246 0 0 1-1.419.235c-2.396.013-4.362-1.953-4.362-4.375V54.712a4.39 4.39 0 0 1 4.388-4.388h12.513l.078-14.662a4.382 4.382 0 0 1 3.49-4.27c11.549-2.409 25.586-1.81 37.89 2.903 8.503 3.255 16.224 8.451 21.862 15.951 5.69-6.992 13.295-12.018 21.849-15.261 11.693-4.44 25.183-5.507 37.878-3.645 2.187.312 3.75 2.2 3.75 4.335v14.649Zm-55 99.245c9.7-3.047 19.388-4.297 29.075-4.245 11.211.065 22.344 1.901 33.438 4.766V59.113h-7.513v71.901a4.39 4.39 0 0 1-5.404 4.271c-9.609-1.511-18.919-.261-28.008 2.982-7.317 2.617-14.505 6.523-21.588 11.302Zm-13.034-8.555V59.256c-4.596-8.112-12.031-13.541-20.43-16.758-9.518-3.645-20.208-4.466-29.531-3.138l-.495 86.993c10.17-.365 20.118.924 29.48 3.984a75.137 75.137 0 0 1 20.976 10.677Z"/></svg>

<svg
    xmlns="http://www.w3.org/2000/svg"
    viewBox="0 0 192 192"
    id="vector">
    <path
        id="path"
        d="M 32.458 130.623 L 32.862 59.113 L 24.789 59.113 L 24.789 150.103 C 35.883 147.238 47.016 145.415 58.227 145.337 C 68.578 145.272 78.93 146.717 89.307 150.233 C 82.862 145.011 75.674 141.17 68.005 138.67 C 58.344 135.519 47.901 134.478 37.198 135.389 C 34.776 135.584 32.667 133.787 32.458 131.379 C 32.432 131.118 32.432 130.871 32.458 130.623 Z M 150.922 55.376 C 150.896 55.168 150.87 54.946 150.87 54.712 C 150.87 54.491 150.883 54.269 150.922 54.048 L 150.922 39.569 C 140.766 38.605 130.297 39.725 121.156 43.189 C 112.615 46.431 105.245 51.756 100.453 59.386 L 100.453 141.86 C 107.901 136.886 115.518 132.798 123.344 130.011 C 132.263 126.834 141.43 125.324 150.922 126.079 Z M 159.711 50.324 L 171.612 50.324 C 174.034 50.324 176 52.29 176 54.712 L 176 155.832 C 176 158.254 174.034 160.22 171.612 160.22 C 171.117 160.22 170.635 160.142 170.193 159.985 C 157.953 156.483 145.792 154.152 133.747 154.074 C 122.003 153.996 110.271 156.066 98.487 161.261 C 97.758 161.743 96.885 162.004 95.987 161.991 C 95.102 162.004 94.229 161.743 93.487 161.261 C 81.716 156.053 69.971 153.996 58.227 154.074 C 46.182 154.152 34.034 156.483 21.781 159.985 C 21.339 160.142 20.857 160.22 20.362 160.22 C 17.966 160.233 16 158.267 16 155.845 L 16 54.712 C 16 52.29 17.966 50.324 20.388 50.324 L 32.901 50.324 L 32.979 35.662 C 32.992 33.553 34.477 31.808 36.469 31.392 C 48.018 28.983 62.055 29.582 74.359 34.295 C 82.862 37.55 90.583 42.746 96.221 50.246 C 101.911 43.254 109.516 38.228 118.07 34.985 C 129.763 30.545 143.253 29.478 155.948 31.34 C 158.135 31.652 159.698 33.54 159.698 35.675 L 159.698 50.324 Z M 104.711 149.569 C 114.411 146.522 124.099 145.272 133.786 145.324 C 144.997 145.389 156.13 147.225 167.224 150.09 L 167.224 59.113 L 159.711 59.113 L 159.711 131.014 C 159.711 133.436 157.745 135.402 155.323 135.402 C 154.971 135.402 154.633 135.363 154.307 135.285 C 144.698 133.774 135.388 135.024 126.299 138.267 C 118.982 140.884 111.794 144.79 104.711 149.569 Z M 91.677 141.014 L 91.677 59.256 C 87.081 51.144 79.646 45.715 71.247 42.498 C 61.729 38.853 51.039 38.032 41.716 39.36 L 41.221 126.353 C 51.391 125.988 61.339 127.277 70.701 130.337 C 78.148 132.759 85.206 136.314 91.677 141.014 Z"
        fill="#000000"
        stroke-width="12"/>
</svg>
